packages/amis-editor-core/src/icons/v3/h5-preview.svg

<?xml version="1.0" encoding="UTF-8"?>
<svg viewBox="0 0 16 16" version="1.1" xmlns="http://www.w3.org/2000/svg" xmlns:xlink="http://www.w3.org/1999/xlink">
    <g id="页面编辑器" stroke="none" stroke-width="1" fill="none" fill-rule="evenodd">
        <g id="补充icon" transform="translate(-189.000000, -51.000000)" fill-rule="nonzero">
            <g id="手机预览" transform="translate(189.000000, 51.000000)">
                <rect id="矩形" x="0" y="0" width="16" height="16"></rect>
                <path d="M13,1.5 C13.2761424,1.5 13.5,1.72385763 13.5,2 L13.5,2 L13.5,14 C13.5,14.2761424 13.2761424,14.5 13,14.5 L13,14.5 L3,14.5 C2.72385763,14.5 2.5,14.2761424 2.5,14 L2.5,14 L2.5,2 C2.5,1.72385763 2.72385763,1.5 3,1.5 L3,1.5 Z M12.4995617,2.5 L3.49956174,2.5 L3.49956174,13.5 L12.4995617,13.5 L12.4995617,2.5 Z M9,11.6598373 C9.27614237,11.6598373 9.5,11.8836949 9.5,12.1598373 C9.5,12.4052972 9.32312484,12.6094457 9.08987563,12.6517816 L9,12.6598373 L7,12.6598373 C6.72385763,12.6598373 6.5,12.4359797 6.5,12.1598373 C6.5,11.9143774 6.67687516,11.7102289 6.91012437,11.667893 L7,11.6598373 L9,11.6598373 Z" id="形状结合备份" fill="currentColor"></path>
            </g>
        </g>
    </g>
</svg>

<svg viewBox="0 0 16 16" xmlns="http://www.w3.org/2000/svg"><g fill="none"><path d="M0 0h16v16H0z"/><path d="M13 1.5a.5.5 0 0 1 .5.5v12a.5.5 0 0 1-.5.5H3a.5.5 0 0 1-.5-.5V2a.5.5 0 0 1 .5-.5Zm-.5 1h-9v11h9v-11ZM9 11.66a.5.5 0 0 1 .09.992L9 12.66H7a.5.5 0 0 1-.09-.992L7 11.66h2Z" fill="currentColor"/></g></svg>
